X:1
T:Abbotsford, LM
T:Abbotsford, LM
T:Catholische Geistliche Gesänge, Andernach, 1608
T:Public Domain Courtesy of the Cyber Hymnal™
C:Catholische Geistliche Gesänge, Andernach, 1608
Z:Public Domain
Z:Courtesy of the Cyber Hymnal™
%%score ( 1 2 ) ( 3 4 )
L:1/8
Q:1/4=105
M:4/4
K:F
V:1 treble 
V:2 treble 
V:3 bass 
V:4 bass 
V:1
 D2 | [A,F]2 [B,D]2 [CF]2 [DG]2 x | [CA]2 G2 [A,F]2 F2 | [Fc]2 [Gc]2 [FA]2 [Ec]2 | %4
 [FA]2 [DG]2 !fermata![^CA]2 [=CG]2 | [CA]2 [Dd]2 [Ec]2 [EA]2 | [DF]2 [^CE]2 D2 [CA]2 | %7
 [DA]2 [EG]2 [DF]2 [DG]2 | [DA]2 [^CA]2 !fermata!D2 |] %9
V:2
 D2 | x9 | x2 (CB,) x F2 x | x8 | x8 | x8 | x4 D2 x2 | x8 | x4 D2 |] %9
V:3
 [D,F,]2 | D,2 [B,,F,]2 F,3 z F, | F,2 [C,E,]2 F,2 [A,C]2 | [F,A,]2 [E,C]2 [F,C]2 [A,,A,]2 | %4
 [D,A,]2 [B,,D,]2 !fermata![A,,E,]2 [C,E,]2 | F,2 [B,,B,]2 [C,G,]2 [^C,A,]2 | %6
 [D,A,]2 [E,G,]2 [F,A,]2 [G,A,]2 | [F,A,]2 [^C,B,]2 [D,A,]2 [B,,D,]2 | %8
 [A,,E,]2 [A,,E,]2 !fermata!D,2 |] %9
V:4
 x2 | D,2 A,,2 B,,2 x3 | (A,,B,,) x F,2 x3 | x8 | x8 | F,2 x6 | x8 | x8 | x4 D,2 |] %9

